!!!OTL: John of Badenyon
!!!id: HA024
**kern
*clefF4
*k[]
*G:
*M4/4
{8a
=1
8.g
16f
8.d
16f
8.g
16f
8.d
16a
=2
8.b
16cc
8.b
16g
4.f}
{8b
=3
8.g
16g
8.b
16cc
8.dd
16cc
8.b
16f
=4
8.g
16g
8.b
16cc
4.dd}
{8ff
=5
8.gg
16dd
8.ff
16cc
8.dd
16b
8cc
8dd
=6
16b
8.g
8.f
16d
4.b}
{8cc
=7
8.dd
16b
8.cc
16g
16b
8.g
8.f
16d
=8
16c
8.c
8.d
16f#
4.g}
{8ff
=9
8.gg
16ff
8.dd
16ff
8.gg
16ff
8.dd
16gg
=10
16f
8.dd
8.cc
16dd
4.ff}
{8dd
=11
8.gg
16ff
8.dd
16ff
8.gg
16ff
8.dd
16b
=12
8.g
16g
8.b
16cc
4.dd}
{8ff
=13
8.gg
16dd
8.ff
16cc
8.dd
16b
8cc
8dd
=14
16b
8.g
8.f
16d
4.b}
{8cc
=15
8.dd
16b
8.cc
16g
16b
8.g
8.f
16d
=16
16c
8.c
8.d
16f
4.g}
==
*-
!!!minrhy: 16
!!!meter: 4/4 
!!!cut: John of Badenyon
!!!key: HA024  16  g 4/4 
!!!fog: a--b--c--d--e--ebwc--dv-
!!!bem1: Zeilen sind oft Varianten von Zeilenanfngen
!!!bem2: und von anderen Zeilenschlssen, s. ebw
!! Haydn: Volksliedbearbeitungen, Bd1
